assets/svg/icon_profile_notifications.svg

<svg width="36" height="36" viewBox="0 0 36 36" fill="none" xmlns="http://www.w3.org/2000/svg">
<g id="icon/profile/notifications">
<g id="Vector">
<path d="M12.5679 30.2603C13.8202 31.8522 15.7875 32.878 17.9997 32.878C20.212 32.878 22.1792 31.8522 23.4315 30.2603C19.8257 30.7489 16.1737 30.7488 12.5679 30.2603Z" fill="white"/>
<path fill-rule="evenodd" clip-rule="evenodd" d="M28.0485 14.5706V13.5223C28.0485 7.76623 23.5495 3.10001 17.9997 3.10001C12.4499 3.10001 7.95093 7.76623 7.95093 13.5223V14.5706C7.95093 15.8287 7.59188 17.0587 6.91901 18.1055L5.27015 20.6707C3.76407 23.0138 4.91384 26.1987 7.53328 26.9396C14.3858 28.8779 21.6137 28.8779 28.4661 26.9396C31.0856 26.1987 32.2353 23.0138 30.7293 20.6707L29.0804 18.1055C28.4075 17.0587 28.0485 15.8287 28.0485 14.5706ZM17.9997 7.93893C18.6164 7.93893 19.1164 8.43888 19.1164 9.0556V15.0112C19.1164 15.6279 18.6164 16.1279 17.9997 16.1279C17.383 16.1279 16.883 15.6279 16.883 15.0112V9.0556C16.883 8.43888 17.383 7.93893 17.9997 7.93893Z" fill="white"/>
</g>
</g>
</svg>

<svg xmlns="http://www.w3.org/2000/svg" width="36" height="36" fill="none"><g fill="#fff"><path d="M12.568 30.26A6.9 6.9 0 0 0 18 32.878a6.9 6.9 0 0 0 5.432-2.618 40.4 40.4 0 0 1-10.864 0"/><path fill-rule="evenodd" d="M28.049 14.57v-1.048c0-5.756-4.5-10.422-10.05-10.422S7.952 7.766 7.952 13.522v1.049a6.54 6.54 0 0 1-1.032 3.534L5.27 20.672c-1.506 2.343-.356 5.528 2.263 6.269a38.4 38.4 0 0 0 20.933 0c2.62-.741 3.77-3.926 2.263-6.27l-1.649-2.565a6.54 6.54 0 0 1-1.031-3.534M17.999 7.94c.617 0 1.117.5 1.117 1.117v5.955a1.117 1.117 0 0 1-2.233 0V9.056c0-.617.5-1.117 1.117-1.117" clip-rule="evenodd"/></g></svg>
